X: 1
T: Kitchen Girl, The
R: reel
M: C|
L: 1/8
K: A mix
|: "A"[a4c4] "G"[g4B4] | "A"(ef)ed c2cd | (ec)ef (ga)ba | "E"g2e2 e2eg |
   "A"(ab)af "G"(ga)gg | "A"(ef)ed (cd)ef | "G"g2d2 "E"efed |\
[1 "A"c2A2 A2(eg :|[2 "A"c2A2 A2([A2A2] ||
K: A dor
|: "A"[AA]B=cA "G"(BA)GB | "A"(AB)AG (ED)EG | A2AA =c2d2 |\
   "E"e3(g e2)([A2A2] |
"A"[AA]B=cA "G"(BA)GB | "A"(AB)AG (EG)AB | =c2A2 "G"(BA)G2 |\
[1 "A"A3(B A2)([A2A2] :|[2 "A"A3(B [A4A4]) |]
N:Fiddlers Fakebook, p 160-161 - abc by Peter Ostapenko 3/14/2007
N:a - A Mixolydian
N:b - A Dorian
